!!!COM: Scriabin, Alexander
!!!OTL: Mazurka
!!!OPR: 9 Mazurkas
!!!OPS: 25
!!!ONM: 3
!!!ODT: 1899
!!!AGN: Mazurka
**kern	**kern
*staff2	*staff1
*clefG2	*clefG2
*k[f#]	*k[f#]
*e:	*e:
*M3/4	*M3/4
=1	=1
*^	*
*	*^	*
2.raa	2.g	2e/	8r
.	.	.	8b
.	.	.	4.cc
.	.	4d#X/	.
.	.	.	8b
=2	=2	=2	=2
4raa	2.g	2dn/	8a#XL
.	.	.	8bJ
.	.	.	8qb/
2b	.	.	8.ff#L
.	.	.	16eeJk
.	.	4c#X/	4ee
=3	=3	=3	=3
4raa	2.e	2cn/	8r
.	.	.	8gL
4raa	.	.	8an
.	.	.	8a#X
4g	.	4B/	8b
.	.	.	8eeJ
*clefF4	*	*	*
=4	=4	=4	=4
[2.g	2.e	2B\	2dd
.	.	4A#X\	4cc#X
=5	=5	=5	=5
4g]	2d#X	2.An\	2ccn
4f#	.	.	.
4fn	4c	.	[4cc
=6	=6	=6	=6
4e	2c	2.F#X\	8ccL]
.	.	.	8b
4d#X	.	.	8g#X
.	.	.	8aJ
4dn	4A	.	4r
=7	=7	=7	=7
4c#X	2A	2.D#X\	4r
4cn	.	.	4.f#
4B	4F#	.	.
.	.	.	8f#
=8	=8	=8	=8
4A#X	2F#	2C/	8f#L
.	.	.	8e
4An	.	.	8dn
.	.	.	8d#X
4d#X	4A	4BB/	8g
.	.	.	8f#J
=9	=9	=9	=9
4e	4G	4E\	8e
.	.	.	8b
*clefG2	*	*	*
2raa	2g	4e/	4.cc
.	.	4d#X/	.
.	.	.	8b
=10	=10	=10	=10
4raa	2.g	2dn/	8a#XL
.	.	.	8bJ
.	.	.	8qb/
2b	.	.	8.ff#L
.	.	.	16eeJk
.	.	4c#X/	4ee
=11	=11	=11	=11
4b	4g	4cn/	8r
.	.	.	8eeL
[2ee	[2b	4c#X/	8ff#
.	.	.	8gg
.	.	4g/	8bb
.	.	.	8eeeJ
=12	=12	=12	=12
2ee]	2b]	2.f#/	4ddd
.	.	.	4ccc#X
4ee	4a#X	.	4ff#
=13	=13	=13	=13
4dd	2a#X	2.e/	2gg
4cc#X	.	.	.
4ccn	4g	.	[4gg
=14	=14	=14	=14
4b	2g	2.c#X/	8ggL]
.	.	.	8ff#
4a#X	.	.	8dd#X
.	.	.	8eeJ
4an	4e	.	4r
=15	=15	=15	=15
4g#X	2e	2.A#X/	4r
4gn	.	.	4.cc#X
4f#	4c#X	.	.
.	.	.	8cc#
*clefF4	*	*	*
=16	=16	=16	=16
4e#X	2c#X	2G\	8cc#XL
.	.	.	8b
4en	.	.	8an
.	.	.	8a#X
4a#X	4e	4F#\	8dd
.	.	.	8cc#J
*v	*v	*v	*
=17	=17
*	*^
2.d 2.f#	4raa	2.b
.	2ff#	.
=18	=18	=18
2.d 2.f#	4raa	2.b
.	8raa	.
.	4ff#	.
.	8ff#	.
=19	=19	=19
*^	*	*
*	*^	*	*
4f#	[2.d	[2.G\	4ff#	4a#X 4dd
.	.	.	.	[16qqa#\LL
.	.	.	.	[16qqdd\
.	.	.	.	16qqaan\JJ
[2e	.	.	4.gg	2a#_ 2dd]
.	.	.	8dd	.
=20	=20	=20	=20	=20
4e]	2.d]	2G\]	2.dd	2.a#]
8eL	.	.	.	.
8e#XJ	.	.	.	.
8.f#L	.	4F#\	.	.
16f#Jk	.	.	.	.
*v	*v	*v	*	*
=21	=21	=21
2.d 2.f#	4raa	4b
.	[2ff#	4an
.	.	4a#X
=22	=22	=22
2.d 2.f#	4ff#]	4cc#X
.	8raa	4ccn
.	4ff#	.
.	.	4b
.	8ff#	.
=23	=23	=23
*^	*	*
*	*^	*	*
4f#	[2.d	[2.G\	4ff#	4a#X 4dd
.	.	.	.	[16qqa#\LL
.	.	.	.	[16qqdd\
.	.	.	.	16qqaan\JJ
[2e	.	.	4.gg	2a#] 2dd]
.	.	.	8dd	.
=24	=24	=24	=24	=24
4e]	2.d]	2.G\]	2.dd	2.b-X
8eL	.	.	.	.
8f#	.	.	.	.
8a	.	.	.	.
8gJ	.	.	.	.
*v	*v	*v	*	*
*clefG2	*	*
=25	=25	=25
2.d 2.f#	4raa	2.a 2.dd
.	2aa	.
=26	=26	=26
2.d 2.fn 2.a	4raa	2.dd
.	8raa	.
.	4aa	.
.	8aa	.
=27	=27	=27
*^	*	*
*	*^	*	*
4a	[2.fn	[2.B-X/	4ffn 4aa	4dd-X
.	.	.	.	[16qqdd-\LL
.	.	.	.	[16qqff\
.	.	.	.	16qqccc\JJ
[2g	.	.	4.bb-X	2dd-_ 2ff]
.	.	.	8ff	.
=28	=28	=28	=28	=28
4g]	2.f]	2.B-/]	2.ffn	2.dd-]
8gL	.	.	.	.
8a	.	.	.	.
8cc	.	.	.	.
8b-XJ	.	.	.	.
*	*v	*v	*	*
=29	=29	=29	=29
*	*	*	*^
2.a	2.fn	4raa	2.ffn	4cc\
.	.	2ccc	.	4r
.	.	.	.	4r
*v	*v	*	*	*
*	*v	*v	*v
=30	=30
2.fn 2.b 2.aa	4r
.	2ddd
=31	=31
2.e 2.b 2.aa	4r
.	4eee
.	8ddd#XL
.	8eeeJ
=32	=32
*^	*
2aa	2.e 2.dd	8fffnL
.	.	8eee
.	.	8bb-X
.	.	8bbn
4gg#X	.	8ccc
.	.	8eeJ
=33	=33	=33
*	*^	*
4aa	2.cc	2a/	8r
.	.	.	8ee
4raa	.	.	4.ffn
4raa	.	4g#X/	.
.	.	.	8ee
=34	=34	=34	=34
4raa	2.cc	2gn/	8dd#XL
.	.	.	8eeJ
.	.	.	8qee/
2ee	.	.	8.bbL
.	.	.	16aaJk
.	.	4f#X/	4aa
=35	=35	=35	=35
4raa	2.a	2fn/	8r
.	.	.	8ccL
4raa	.	.	8ddn
.	.	.	8dd#X
4cc	.	4e/	8ee
.	.	.	8aaJ
=36	=36	=36	=36
[2.cc	2.a	2e/	2gg
.	.	4d#X/	4ff#X
=37	=37	=37	=37
4cc]	2g#X	2.dn/	2ffn
4b	.	.	.
4b-X	4fn	.	[4ff
=38	=38	=38	=38
4a	2fn	2.Bn/	8ffL]
.	.	.	8ee
4g#X	.	.	8cc#X
.	.	.	8ddJ
4gn	4d	.	4r
=39	=39	=39	=39
4f#X	2d	2.G#X/	4r
4fn	.	.	4.b
4e	4B	.	.
.	.	.	8b
=40	=40	=40	=40
4d#X	2B	2Fn/	8bL
.	.	.	8a
4dn	.	.	8gn
.	.	.	8g#X
4g#X	4d	4E/	8cc
.	.	.	8bJ
=41	=41	=41	=41
4a	2.c	2A/	8a
.	.	.	8e
4raa	.	.	4.fn
4raa	.	4G#X/	.
.	.	.	8e
*clefF4	*	*	*
=42	=42	=42	=42
4rc	2.c	2Gn\	8d#XL
.	.	.	8eJ
.	.	.	8qe/
2e	.	.	8.bL
.	.	.	16aJk
.	.	4F#X\	4a
=43	=43	=43	=43
4e	4c	4Fn\	8r
.	.	.	8aL
[2a	[2e	4F#X\	8b
.	.	.	8cc
.	.	4c\	8ee
.	.	.	8aaJ
=44	=44	=44	=44
2a]	2e]	2.B\	4gg
.	.	.	4ff#
4a	4d#X	.	4b
=45	=45	=45	=45
4g	2d#X	2.A\	2cc
4f#	.	.	.
4fn	4c	.	[4cc
=46	=46	=46	=46
4e	2c	2.F#X\	8ccL]
.	.	.	8b
4d#X	.	.	8g#X
.	.	.	8aJ
4dn	4A	.	4r
=47	=47	=47	=47
4c#X	2A	2.D#X\	4r
4cn	.	.	4.f#
4B	4F#	.	.
.	.	.	8f#
=48	=48	=48	=48
4A#X	2F#	2C/	8f#L
.	.	.	8e
4An	.	.	8dn
.	.	.	8d#X
4d#X	4A	4BB/	8g
.	.	.	8f#J
*v	*v	*v	*
=49	=49
*	*^
2.G 2.B	4raa	2.e
.	2b	.
=50	=50	=50
2.G 2.B	4raa	2.e
.	8raa	.
.	4b	.
.	8b	.
=51	=51	=51
*^	*	*
*	*^	*	*
4B	[2.G	[2.C/	4g 4b	4d#X
.	.	.	.	[16qqd#\LL
.	.	.	.	[16qqg\
.	.	.	.	16qqddn\JJ
[2A	.	.	4.cc	2d#_ 2g]
.	.	.	8g	.
=52	=52	=52	=52	=52
4A]	2.G]	2C/]	2.g	2.d#]
8AL	.	.	.	.
8A#XJ	.	.	.	.
8.BL	.	4BB/	.	.
16BJk	.	.	.	.
*v	*v	*v	*	*
=53	=53	=53
2.G 2.B	4raa	4e
.	[2b	4dn
.	.	4d#X
=54	=54	=54
2.G 2.B	4b]	4f#
.	8raa	4fn
.	4b	.
.	.	4e
.	8b	.
=55	=55	=55
*^	*	*
*	*^	*	*
4B	[2.G	[2.C/	4g 4b	4d#X
.	.	.	.	[16qqd#\LL
.	.	.	.	[16qqg\
.	.	.	.	16qqddn\JJ
[2A	.	.	4.cc	2d#_ 2g]
.	.	.	8g	.
=56	=56	=56	=56	=56
2.A]	2.G]	2.C/]	2.g	2.d#]
*v	*v	*v	*	*
=57	=57	=57
4r	4raa	4rc
4r	4raa	8AL
.	.	8A#XJ
4BB	4G 4d#X 4g	8.BL
.	.	16BJk
*	*v	*v
=58	=58
2.EEE 2.EE 2.BB	2.G 2.B 2.e 2.g
==	==
*-	*-
!!!system-decoration: {(*)}
!!!ENC: Bryan Jacob Bell
!!!END: November 2021 to April 2022
!!!PED: Günter Philipp
!!!PTL: Ausgewählte Klavierwerke (Edition Peters)
